src/icons/application-exit.svg

<svg height="32" viewBox="0 0 32 32" width="32" xmlns="http://www.w3.org/2000/svg"><g fill="#f25022" transform="matrix(2.3333333 0 0 2.3333333 -2.666666 -39.999999)"><path d="m13.195474 20.988256c-.536511-.919216-1.264324-1.647024-2.183536-2.183536-.919403-.536512-1.923095-.80472-3.0117462-.80472-1.0885554 0-2.0925349.268208-3.0117467.80472-.9193077.536416-1.6471209 1.264224-2.1836313 2.183536-.5366065.919304-.8048138 1.923288-.8048138 3.011744 0 1.088552.2683032 2.092344.8047178 3.011744.5365106.91912 1.2643238 1.647024 2.1836314 2.183536.9193077.536512 1.9231913.80472 3.0117467.80472s2.0925341-.268208 3.0117461-.80472c.919212-.536416 1.647025-1.26432 2.183536-2.183536.536415-.919304.804622-1.923288.804622-3.011744 0-1.088552-.268207-2.092536-.804526-3.011744zm-2.367263 4.425752c.09896.09886.148535.21624.148535.351632 0 .140576-.04958.26044-.148535.359304l-.703073.703168c-.09896.09896-.2187276.14844-.3593996.14844-.1353984 0-.2527691-.04952-.351537-.14844l-1.4141055-1.414104-1.4141056 1.414104c-.09896.09896-.2161385.14844-.3515366.14844-.1406723 0-.2604402-.04952-.3593998-.14844l-.7031692-.703168c-.09896-.09886-.1484393-.218728-.1484393-.359304 0-.135392.04948-.252768.1484393-.351632l1.4141056-1.414008-1.4141056-1.414104c-.09896-.09886-.1484393-.216144-.1484393-.351536 0-.140672.04948-.26044.1484393-.3594l.7031692-.703072c.09896-.09896.2187275-.14844.3593998-.14844.1353981 0 .252577.04952.3515366.14844l1.4141056 1.414008 1.4141055-1.414008c.098768-.09896.2161386-.14844.351537-.14844.140672 0 .2604396.04952.3593996.14844l.703073.703072c.09896.09896.148535.218728.148535.3594 0 .135392-.04958.252672-.148535.351536l-1.4140096 1.414104z"/><path d="m13.195474 20.988256c-.536511-.919216-1.264324-1.647024-2.183536-2.183536-.919403-.536512-1.923095-.80472-3.0117462-.80472-1.0885554 0-2.0925349.268208-3.0117467.80472-.9193077.536416-1.6471209 1.264224-2.1836313 2.183536-.5366065.919304-.8048138 1.923288-.8048138 3.011744 0 1.088552.2683032 2.092344.8047178 3.011744.5365106.91912 1.2643238 1.647024 2.1836314 2.183536.9193077.536512 1.9231913.80472 3.0117467.80472s2.0925341-.268208 3.0117461-.80472c.919212-.536416 1.647025-1.26432 2.183536-2.183536.536415-.919304.804622-1.923288.804622-3.011744 0-1.088552-.268207-2.092536-.804526-3.011744zm-2.367263 4.425752c.09896.09886.148535.21624.148535.351632 0 .140576-.04958.26044-.148535.359304l-.703073.703168c-.09896.09896-.2187276.14844-.3593996.14844-.1353984 0-.2527691-.04952-.351537-.14844l-1.4141055-1.414104-1.4141056 1.414104c-.09896.09896-.2161385.14844-.3515366.14844-.1406723 0-.2604402-.04952-.3593998-.14844l-.7031692-.703168c-.09896-.09886-.1484393-.218728-.1484393-.359304 0-.135392.04948-.252768.1484393-.351632l1.4141056-1.414008-1.4141056-1.414104c-.09896-.09886-.1484393-.216144-.1484393-.351536 0-.140672.04948-.26044.1484393-.3594l.7031692-.703072c.09896-.09896.2187275-.14844.3593998-.14844.1353981 0 .252577.04952.3515366.14844l1.4141056 1.414008 1.4141055-1.414008c.098768-.09896.2161386-.14844.351537-.14844.140672 0 .2604396.04952.3593996.14844l.703073.703072c.09896.09896.148535.218728.148535.3594 0 .135392-.04958.252672-.148535.351536l-1.4140096 1.414104z"/></g></svg>

<?xml version="1.0" encoding="UTF-8" standalone="no"?>
<svg
   xmlns:dc="http://purl.org/dc/elements/1.1/"
   xmlns:cc="http://creativecommons.org/ns#"
   xmlns:rdf="http://www.w3.org/1999/02/22-rdf-syntax-ns#"
   xmlns:svg="http://www.w3.org/2000/svg"
   xmlns="http://www.w3.org/2000/svg"
   xmlns:sodipodi="http://sodipodi.sourceforge.net/DTD/sodipodi-0.dtd"
   xmlns:inkscape="http://www.inkscape.org/namespaces/inkscape"
   viewBox="0 0 32 32"
   version="1.1"
   id="svg4"
   sodipodi:docname="application-exit.svg"
   inkscape:version="0.92.4 5da689c313, 2019-01-14"
   width="32"
   height="32">
  <metadata
     id="metadata10">
    <rdf:RDF>
      <cc:Work
         rdf:about="">
        <dc:format>image/svg+xml</dc:format>
        <dc:type
           rdf:resource="http://purl.org/dc/dcmitype/StillImage" />
        <dc:title />
      </cc:Work>
    </rdf:RDF>
  </metadata>
  <defs
     id="defs8" />
  <sodipodi:namedview
     pagecolor="#ffffff"
     bordercolor="#666666"
     borderopacity="1"
     objecttolerance="10"
     gridtolerance="10"
     guidetolerance="10"
     inkscape:pageopacity="0"
     inkscape:pageshadow="2"
     inkscape:window-width="1366"
     inkscape:window-height="703"
     id="namedview6"
     showgrid="false"
     inkscape:zoom="7.375"
     inkscape:cx="-12.338983"
     inkscape:cy="16.135593"
     inkscape:window-x="0"
     inkscape:window-y="0"
     inkscape:window-maximized="1"
     inkscape:current-layer="svg4" />
  <g
     id="g10"
     transform="matrix(2.3333333,0,0,2.3333333,-2.6666664,-39.999999)"
     style="fill:#f25022;fill-opacity:1">
    <path
       inkscape:connector-curvature="0"
       style="fill:#f25022;fill-opacity:1"
       id="path2"
       d="M 13.195474,20.988256 C 12.658963,20.06904 11.93115,19.341232 11.011938,18.80472 10.092535,18.268208 9.088843,18 8.0001918,18 6.9116364,18 5.9076569,18.268208 4.9884451,18.80472 4.0691374,19.341136 3.3413242,20.068944 2.8048138,20.988256 2.2682073,21.90756 2,22.911544 2,24 c 0,1.088552 0.2683032,2.092344 0.8047178,3.011744 0.5365106,0.91912 1.2643238,1.647024 2.1836314,2.183536 C 5.9076569,29.731792 6.9115405,30 8.0000959,30 9.0886513,30 10.09263,29.731792 11.011842,29.19528 11.931054,28.658864 12.658867,27.93096 13.195378,27.011744 13.731793,26.09244 14,25.088456 14,24 14,22.911448 13.731793,21.907464 13.195474,20.988256 Z m -2.367263,4.425752 c 0.09896,0.09886 0.148535,0.21624 0.148535,0.351632 0,0.140576 -0.04958,0.26044 -0.148535,0.359304 l -0.703073,0.703168 c -0.09896,0.09896 -0.2187276,0.14844 -0.3593996,0.14844 -0.1353984,0 -0.2527691,-0.04952 -0.351537,-0.14844 L 8.0000959,25.414008 6.5859903,26.828112 c -0.09896,0.09896 -0.2161385,0.14844 -0.3515366,0.14844 -0.1406723,0 -0.2604402,-0.04952 -0.3593998,-0.14844 L 5.1718847,26.124944 c -0.09896,-0.09886 -0.1484393,-0.218728 -0.1484393,-0.359304 0,-0.135392 0.04948,-0.252768 0.1484393,-0.351632 L 6.5859903,24 5.1718847,22.585896 c -0.09896,-0.09886 -0.1484393,-0.216144 -0.1484393,-0.351536 0,-0.140672 0.04948,-0.26044 0.1484393,-0.3594 l 0.7031692,-0.703072 c 0.09896,-0.09896 0.2187275,-0.14844 0.3593998,-0.14844 0.1353981,0 0.252577,0.04952 0.3515366,0.14844 l 1.4141056,1.414008 1.4141055,-1.414008 c 0.098768,-0.09896 0.2161386,-0.14844 0.351537,-0.14844 0.140672,0 0.2604396,0.04952 0.3593996,0.14844 l 0.703073,0.703072 c 0.09896,0.09896 0.148535,0.218728 0.148535,0.3594 0,0.135392 -0.04958,0.252672 -0.148535,0.351536 L 9.4142014,24 Z" />
    <path
       inkscape:connector-curvature="0"
       d="M 13.195474,20.988256 C 12.658963,20.06904 11.93115,19.341232 11.011938,18.80472 10.092535,18.268208 9.088843,18 8.0001918,18 6.9116364,18 5.9076569,18.268208 4.9884451,18.80472 4.0691374,19.341136 3.3413242,20.068944 2.8048138,20.988256 2.2682073,21.90756 2,22.911544 2,24 c 0,1.088552 0.2683032,2.092344 0.8047178,3.011744 0.5365106,0.91912 1.2643238,1.647024 2.1836314,2.183536 C 5.9076569,29.731792 6.9115405,30 8.0000959,30 9.0886513,30 10.09263,29.731792 11.011842,29.19528 11.931054,28.658864 12.658867,27.93096 13.195378,27.011744 13.731793,26.09244 14,25.088456 14,24 14,22.911448 13.731793,21.907464 13.195474,20.988256 Z m -2.367263,4.425752 c 0.09896,0.09886 0.148535,0.21624 0.148535,0.351632 0,0.140576 -0.04958,0.26044 -0.148535,0.359304 l -0.703073,0.703168 c -0.09896,0.09896 -0.2187276,0.14844 -0.3593996,0.14844 -0.1353984,0 -0.2527691,-0.04952 -0.351537,-0.14844 L 8.0000959,25.414008 6.5859903,26.828112 c -0.09896,0.09896 -0.2161385,0.14844 -0.3515366,0.14844 -0.1406723,0 -0.2604402,-0.04952 -0.3593998,-0.14844 L 5.1718847,26.124944 c -0.09896,-0.09886 -0.1484393,-0.218728 -0.1484393,-0.359304 0,-0.135392 0.04948,-0.252768 0.1484393,-0.351632 L 6.5859903,24 5.1718847,22.585896 c -0.09896,-0.09886 -0.1484393,-0.216144 -0.1484393,-0.351536 0,-0.140672 0.04948,-0.26044 0.1484393,-0.3594 l 0.7031692,-0.703072 c 0.09896,-0.09896 0.2187275,-0.14844 0.3593998,-0.14844 0.1353981,0 0.252577,0.04952 0.3515366,0.14844 l 1.4141056,1.414008 1.4141055,-1.414008 c 0.098768,-0.09896 0.2161386,-0.14844 0.351537,-0.14844 0.140672,0 0.2604396,0.04952 0.3593996,0.14844 l 0.703073,0.703072 c 0.09896,0.09896 0.148535,0.218728 0.148535,0.3594 0,0.135392 -0.04958,0.252672 -0.148535,0.351536 L 9.4142014,24 Z"
       id="path817"
       style="fill:#f25022;fill-opacity:1" />
  </g>
</svg>
